assets/distance.svg

<?xml version="1.0" encoding="UTF-8" standalone="no"?><!DOCTYPE svg PUBLIC "-//W3C//DTD SVG 1.1//EN" "http://www.w3.org/Graphics/SVG/1.1/DTD/svg11.dtd"><svg width="100%" height="100%" viewBox="0 0 32 32" version="1.1" xmlns="http://www.w3.org/2000/svg" xmlns:xlink="http://www.w3.org/1999/xlink" xml:space="preserve" xmlns:serif="http://www.serif.com/" style="fill-rule:evenodd;clip-rule:evenodd;stroke-linejoin:round;stroke-miterlimit:1.41421;">
<metadata>
<rdf:RDF xmlns:cc="http://web.resource.org/cc/"
         xmlns:rdf="http://www.w3.org/1999/02/22-rdf-syntax-ns#"
         xmlns:dc = "http://purl.org/dc/elements/1.1/"
         >

     <rdf:Description rdf:about="">
       <dc:title>Mutant Standard emoji 2024.06</dc:title>
     </rdf:Description>

    <cc:work rdf:about="">
        <cc:license rdf:resource="http://creativecommons.org/licenses/by-nc-sa/4.0/"/>
        <cc:attributionName>Caius Nocturne</cc:attributionName>
        <cc:attributionURL>http://mutant.tech/</cc:attributionURL>
    </cc:work>

</rdf:RDF>
</metadata>
<rect id="arrow_left_right" x="0" y="0" width="32" height="32" style="fill:none;"/><clipPath id="_clip1"><rect x="0" y="0" width="32" height="32"/></clipPath><g clip-path="url(#_clip1)"><g id="outline"><path d="M9.621,19l1.5,1.5l0,2l-2.121,2.121l-7.121,-7.121l0,-2l7.121,-7.121l2.121,2.121l0,2l-1.5,1.5l12.758,0l-1.5,-1.5l0,-2l2.121,-2.121l7.121,7.121l0,2l-7.121,7.121l-2.121,-2.121l0,-2l1.5,-1.5l-12.758,0Z" style="fill:#878585;fill-rule:nonzero;stroke:#000;stroke-width:4px;" transform="rotate(-45, 16, 16)"/></g><g id="emoji"><path d="M7.621,19l3.5,1.5l0,2l-2.121,2.121l-7.121,-7.121l0,-2l7.121,-5.121l2.121,0.121l0,2l-3.5,3.5l16.758,0l-3.5,-3.5l0,-2l2.121,-0.121l7.121,5.121l0,2l-7.121,7.121l-2.121,-2.121l0,-2l3.5,-1.5l-16.758,0Z" style="fill:#878585;fill-rule:nonzero;" transform="rotate(-45, 16, 16)"/><path d="M7.621,17l3.5,3.5l-2.121,2.121l-7.121,-7.121l7.121,-7.121l2.121,2.121l-3.5,3.5l16.758,0l-3.5,-3.5l2.121,-2.121l7.121,7.121l-7.121,7.121l-2.121,-2.121l3.5,-3.5l-16.758,0Z" style="fill:#faf5f5;fill-rule:nonzero;" transform="rotate(-45, 16, 16)"/></g></g></svg>

<?xml version="1.0" encoding="UTF-8" standalone="no"?>
<svg
   width="100%"
   height="100%"
   viewBox="0 0 32 32"
   version="1.1"
   xml:space="preserve"
   style="fill-rule:evenodd;clip-rule:evenodd;stroke-linejoin:round;stroke-miterlimit:1.41421;"
   id="svg3"
   sodipodi:docname="distance.svg"
   inkscape:version="1.4.2 (f4327f4, 2025-05-13)"
   xmlns:inkscape="http://www.inkscape.org/namespaces/inkscape"
   xmlns:sodipodi="http://sodipodi.sourceforge.net/DTD/sodipodi-0.dtd"
   xmlns="http://www.w3.org/2000/svg"
   xmlns:svg="http://www.w3.org/2000/svg"
   xmlns:rdf="http://www.w3.org/1999/02/22-rdf-syntax-ns#"
   xmlns:cc="http://creativecommons.org/ns#"
   xmlns:dc="http://purl.org/dc/elements/1.1/"><defs
   id="defs3" /><sodipodi:namedview
   id="namedview3"
   pagecolor="#ffffff"
   bordercolor="#000000"
   borderopacity="0.25"
   inkscape:showpageshadow="2"
   inkscape:pageopacity="0.0"
   inkscape:pagecheckerboard="0"
   inkscape:deskcolor="#d1d1d1"
   showgrid="true"
   inkscape:zoom="12.078125"
   inkscape:cx="8.9003881"
   inkscape:cy="21.733506"
   inkscape:window-width="1920"
   inkscape:window-height="991"
   inkscape:window-x="-9"
   inkscape:window-y="-9"
   inkscape:window-maximized="1"
   inkscape:current-layer="svg3"><inkscape:grid
     id="grid3"
     units="px"
     originx="0"
     originy="0"
     spacingx="1"
     spacingy="1"
     empcolor="#0099e5"
     empopacity="0.30196078"
     color="#0099e5"
     opacity="0.14901961"
     empspacing="5"
     enabled="true"
     visible="true" /></sodipodi:namedview>
<metadata
   id="metadata1">
<rdf:RDF>

     <rdf:Description
   rdf:about="">
       <dc:title>Mutant Standard emoji 2024.06</dc:title>
     </rdf:Description>

    <cc:work
   rdf:about="">
        <cc:license
   rdf:resource="http://creativecommons.org/licenses/by-nc-sa/4.0/" />
        <cc:attributionName>Caius Nocturne</cc:attributionName>
        <cc:attributionURL>http://mutant.tech/</cc:attributionURL>
    </cc:work>

</rdf:RDF>
</metadata>
<rect
   id="arrow_left_right"
   x="0"
   y="0"
   width="32"
   height="32"
   style="display:none;fill:none" /><clipPath
   id="_clip1"><rect
     x="0"
     y="0"
     width="32"
     height="32"
     id="rect1" /></clipPath><g
   clip-path="url(#_clip1)"
   id="g3"
   transform="matrix(1.2212206,0,0,1.2212288,-3.9712963,-3.9714304)"><g
     id="outline"><path
       d="m 9.621,19 1.5,1.5 v 2 L 9,24.621 1.879,17.5 v -2 L 9,8.379 11.121,10.5 v 2 l -1.5,1.5 h 12.758 l -1.5,-1.5 v -2 L 23,8.379 30.121,15.5 v 2 L 23,24.621 20.879,22.5 v -2 l 1.5,-1.5 z"
       style="fill:#878585;fill-rule:nonzero;stroke:#000000;stroke-width:4px"
       transform="rotate(-45,16,16)"
       id="path1" /></g><g
     id="emoji"><path
       d="m 7.621,19 3.5,1.5 v 2 L 9,24.621 1.879,17.5 v -2 L 9,10.379 11.121,10.5 v 2 l -3.5,3.5 h 16.758 l -3.5,-3.5 v -2 L 23,10.379 30.121,15.5 v 2 L 23,24.621 20.879,22.5 v -2 l 3.5,-1.5 z"
       style="fill:#878585;fill-rule:nonzero"
       transform="rotate(-45,16,16)"
       id="path2" /><path
       d="m 7.621,17 3.5,3.5 L 9,22.621 1.879,15.5 9,8.379 11.121,10.5 7.621,14 H 24.379 L 20.879,10.5 23,8.379 30.121,15.5 23,22.621 20.879,20.5 24.379,17 Z"
       style="fill:#faf5f5;fill-rule:nonzero"
       transform="rotate(-45,16,16)"
       id="path3" /></g></g></svg>
